ZUCCAL
CUT[EIN SCHIFFLEIN SAH ICH FAHREN]
REG[Europa, Mitteleuropa, Deutschland, Westfalen; Pommern]
KEY[Z0080  08  G 4/4]
MEL[-5_  1_.11_2_  3__10
    34  5_5_544_  3__0_
    3_  5_5_5_65  544_0_
    54  33333_21  322_0_
    54  3_1_1_54  3_1_1_
    54  32343234  32345_
    6_  5__4_44  3__2_
    2_  3_2_3_44  5__1_ //] >>
FCT[Sagen - Lied, Romanze, Soldaten - Lied]
